X:33
T:Captain Kelly
Z: id:dc-reel-363
M:C
L:1/8
K:G Major
B|GBAB G2ge|dBAc BGEF|GBAB G2ge|dBAc BGGF|!
GABd g2fe|dBAc BGEF|GABd g2fe|dBAc BGG|]!
f|g2bg agbg|egdg egde|g2bg agbg|egfa g2de|!
g2bg agbg|egdg egdg|bgaf gfed|egfa ged|]!

